Front/img/common-section_compare/illu-5.svg

<svg width="225" height="225" viewBox="0 0 225 225" fill="none" xmlns="http://www.w3.org/2000/svg">
<path d="M204.76 85.32C204.76 69.8526 198.616 55.0187 187.679 44.0815C176.742 33.1444 161.908 27 146.44 27L80.1403 27C64.6729 27 49.839 33.1444 38.9018 44.0815C27.9647 55.0187 21.8203 69.8526 21.8203 85.32C21.8203 100.787 27.9647 115.621 38.9018 126.558C49.839 137.496 64.6729 143.64 80.1403 143.64H146.44C161.908 143.64 176.742 137.496 187.679 126.558C198.616 115.621 204.76 100.787 204.76 85.32Z" fill="#E1E1E1"/>
<rect x="37" y="162" width="25" height="51" rx="10" fill="black"/>
<rect x="163" y="162" width="25" height="51" rx="10" fill="black"/>
<path fill-rule="evenodd" clip-rule="evenodd" d="M111.272 67H74.5045C71.3804 67 64.1231 69.2154 60.0859 78.0769C56.0487 86.9385 46.3882 109.462 42.0626 119.615C36.0549 123.615 23.8952 133.831 23.3185 142.692C22.7417 151.554 23.0781 165.462 23.3185 171.308C23.3184 174.385 24.7603 181.092 30.5277 183.308C36.2397 185.502 86.2655 186.67 111.272 186.991V187C111.393 186.999 111.514 186.997 111.636 186.996C111.756 186.997 111.874 186.999 111.993 187V186.991C137.512 186.67 188.594 185.502 194.425 183.308C200.312 181.092 201.784 174.385 201.784 171.308C202.029 165.462 202.373 151.554 201.784 142.692C201.195 133.831 188.783 123.615 182.651 119.615C178.236 109.462 168.375 86.9385 164.254 78.0769C160.134 69.2154 152.726 67 149.537 67H111.993H111.272Z" fill="#152D5D"/>
<path d="M44.3653 105.882C45.0288 106.567 49.0649 108.448 51 109.303L48.512 117C44.5312 111.527 42.4302 112.439 41.8773 113.579C39.3893 117 34.4133 116.145 32.7546 113.579C31.096 111.014 31.9253 98.1857 37.7307 99.0408C43.536 99.896 43.536 105.027 44.3653 105.882Z" fill="#152D5D"/>
<path d="M180.635 105.882C179.971 106.567 175.935 108.448 174 109.303L176.488 117C180.469 111.527 182.57 112.439 183.123 113.579C185.611 117 190.587 116.145 192.245 113.579C193.904 111.014 193.075 98.1857 187.269 99.0408C181.464 99.896 181.464 105.027 180.635 105.882Z" fill="#152D5D"/>
<path d="M64.5 80.6446C62.9 82.7367 53 107 48 119H178C173 107 163.1 83.0854 161.5 80.6446C159.9 78.2038 154.833 77.8842 152.5 78.0295H75.5C71 78.0295 66.5 78.0295 64.5 80.6446Z" fill="white"/>
<path d="M33.75 150.434C31.95 149.007 28.5 141.518 27 139.141C33 138.546 52.2 139.854 54 142.707C55.8 145.56 58.75 151.424 60 154C51.75 154 35.55 151.86 33.75 150.434Z" fill="#FFD300"/>
<path d="M191.455 150.434C193.2 149.007 196.545 141.518 198 139.141C192.182 138.546 173.564 139.854 171.818 142.707C170.073 145.56 167.212 151.424 166 154C174 154 189.709 151.86 191.455 150.434Z" fill="#FFD300"/>
<path d="M21.0141 175.224V170C44.0523 171.244 91.3484 173.732 112.489 173.732C133.63 173.732 184.314 171.244 204.981 170V175.224C205.15 176.966 204.269 180.897 199.391 182.688C194.512 184.479 182.451 185.424 177.03 185.673C115.03 188.659 61.6698 185.673 56.5878 185.673C51.5059 185.673 30.6698 185.673 25.5879 182.688C20.5059 179.702 21.0141 175.971 21.0141 175.224Z" fill="#E1E1E1"/>
<path d="M56.75 106L53 115H64.25L68 106H56.75Z" fill="#24AD79"/>
</svg>

<svg xmlns="http://www.w3.org/2000/svg" fill="none" viewBox="0 0 225 225"><path fill="#E1E1E1" d="M204.76 85.32A58.32 58.32 0 00146.44 27h-66.3a58.32 58.32 0 000 116.64h66.3a58.317 58.317 0 0058.32-58.32z"/><rect width="25" height="51" x="37" y="162" fill="#000" rx="10"/><rect width="25" height="51" x="163" y="162" fill="#000" rx="10"/><path fill="#152D5D" fill-rule="evenodd" d="M111.272 67H74.504c-3.124 0-10.38 2.215-14.418 11.077-4.037 8.862-13.698 31.385-18.023 41.538-6.008 4-18.168 14.216-18.745 23.077-.576 8.862-.24 22.77 0 28.616 0 3.077 1.442 9.784 7.21 12 5.712 2.194 55.738 3.362 80.744 3.683V187l.364-.004.357.004v-.009c25.519-.321 76.601-1.489 82.432-3.683 5.887-2.216 7.359-8.923 7.359-12 .245-5.846.589-19.754 0-28.616-.589-8.861-13.001-19.077-19.133-23.077-4.415-10.153-14.276-32.676-18.397-41.538C160.134 69.215 152.726 67 149.537 67H111.272z" clip-rule="evenodd"/><path fill="#152D5D" d="M44.365 105.882c.664.685 4.7 2.566 6.635 3.421L48.512 117c-3.98-5.473-6.082-4.561-6.635-3.421-2.488 3.421-7.464 2.566-9.122 0-1.659-2.565-.83-15.393 4.976-14.538 5.805.855 5.805 5.986 6.634 6.841zM180.635 105.882c-.664.685-4.7 2.566-6.635 3.421l2.488 7.697c3.981-5.473 6.082-4.561 6.635-3.421 2.488 3.421 7.464 2.566 9.122 0 1.659-2.565.83-15.393-4.976-14.538-5.805.855-5.805 5.986-6.634 6.841z"/><path fill="#fff" d="M64.5 80.645C62.9 82.737 53 107 48 119h130c-5-12-14.9-35.915-16.5-38.355-1.6-2.441-6.667-2.76-9-2.615h-77c-4.5 0-9 0-11 2.615z"/><path fill="#FFD300" d="M33.75 150.434c-1.8-1.427-5.25-8.916-6.75-11.293 6-.595 25.2.713 27 3.566 1.8 2.853 4.75 8.717 6 11.293-8.25 0-24.45-2.14-26.25-3.566zM191.455 150.434c1.745-1.427 5.09-8.916 6.545-11.293-5.818-.595-24.436.713-26.182 3.566-1.745 2.853-4.606 8.717-5.818 11.293 8 0 23.709-2.14 25.455-3.566z"/><path fill="#E1E1E1" d="M21.014 175.224V170c23.038 1.244 70.334 3.732 91.475 3.732 21.141 0 71.825-2.488 92.492-3.732v5.224c.169 1.742-.712 5.673-5.59 7.464-4.879 1.791-16.94 2.736-22.361 2.985-62 2.986-115.36 0-120.442 0-5.082 0-25.918 0-31-2.985-5.082-2.986-4.574-6.717-4.574-7.464z"/><path fill="#24AD79" d="M56.75 106L53 115h11.25l3.75-9H56.75z"/></svg>
